X:887
T:Reel 887
M:4/4
K:Dmaj
L:1/8
AG|F<DD^C D>D (3DCD |FDDD d2AG|F>D (3DCD FEDC|CDEC E2GE|F<DDD CDA,>D (3DCD |FDDF B2AG|FEFG =cdce|d2=cA G2|FE|Ddd^c =cAG2|ABAG A2AG|FEDC DEFG|AdcB AGFE|DFGA BGAF|DEFG A2Bc|dBcA BGAG| (3FED EC D2|
